X:210
T:Stenson's #2, John
M:C
L:1/8
K:A Major
cB|ABcA B2cB|ABcB BAFB|ABcA B3f|e2cB BAFB|!
ABcA B2cB|ABcB BAFA|d3c dfed|cdBc A2:|!
ef|e2cd edcd|e2cB BAFf|e2cd edcA|BcBA BAFf|!
e2cd edcd|e2cB BAFA|d3c dfed|cdBc A2:|!
